**harmony	**harte	**kern	**silbe	**rhyme	**timestamp	**phrase
*M4/4	*M4/4	*ICvox	*	*	*	*
*	*	*VRlead	*	*	*	*
*	*	*Hstimme	*	*	*	*
*G:	*G:	*G:	*	*	*	*
*	*	*M4/4	*	*	*	*
*	*	*clefG2	*	*	*	*
1r;	1r	r;	.	.	0	.
=1	=1	=1	=1	=1	=1	=1
*>Letter>A	*>Letter>A	*>Letter>A	*>Letter>A	*>Letter>A	*>Letter>A	*>Letter>A
*>Label>Intro	*>Label>Intro	*>Label>Intro	*>Label>Intro	*>Label>Intro	*>Label>Intro	*>Label>Intro
2GM	G:maj	1r	.	.	0.325	newline
2DM	D:maj/3	.	.	.	1.364	.
=2	=2	=2	=2	=2	=2	=2
1CM	C:maj(9)/3	1r	.	.	2.403	.
=3	=3	=3	=3	=3	=3	=3
2GM	G:maj	1r	.	.	4.481	.
2DM	D:maj/3	.	.	.	5.521	.
=4	=4	=4	=4	=4	=4	=4
2.CM	C:maj(9)/3	1r	.	.	6.56	.
4DM	D:maj/3	.	.	.	8.118	.
=5	=5	=5	=5	=5	=5	=5
2GM	G:maj	1r	.	.	8.638	newline
2DM	D:maj/3	.	.	.	9.635	.
=6	=6	=6	=6	=6	=6	=6
2.CM	C:maj(9)/3	1r	.	.	10.631	.
4DM	D:maj/3	.	.	.	12.126	.
=7	=7	=7	=7	=7	=7	=7
2GM	G:maj	1r	.	.	12.625	.
2DM	D:maj/3	.	.	.	13.622	.
=8	=8	=8	=8	=8	=8	=8
2.CM	C:maj(9)/3	1r	.	.	14.618	.
4DM	D:maj/3	.	.	.	16.113	.
=9	=9	=9	=9	=9	=9	=9
*>Letter>B	*>Letter>B	*>Letter>B	*>Letter>B	*>Letter>B	*>Letter>B	*>Letter>B
*>Label>Chorus	*>Label>Chorus	*>Label>Chorus	*>Label>Chorus	*>Label>Chorus	*>Label>Chorus	*>Label>Chorus
2GM	G:maj	1r	.	.	16.612	newline
2DM	D:maj	.	.	.	17.591	.
=10	=10	=10	=10	=10	=10	=10
2.CM	C:maj(9)	1r	.	.	18.571	.
4DM	D:maj	.	.	.	20.04	.
=11	=11	=11	=11	=11	=11	=11
2GM	G:maj	1r	.	.	20.529	.
2DM	D:maj	.	.	.	21.509	.
=12	=12	=12	=12	=12	=12	=12
2.CM	C:maj(9)	1r	.	.	22.488	.
4DM	D:maj	.	.	.	23.957	.
=13	=13	=13	=13	=13	=13	=13
2GM	G:maj	1r	.	.	24.447	newline
2DM	D:maj	.	.	.	25.409	.
=14	=14	=14	=14	=14	=14	=14
1CM	C:maj(9)	2dd	There	.	26.371	.
.	.	4.ff#	she	.	.	.
.	.	[8gg	goes	A	.	.
=15	=15	=15	=15	=15	=15	=15
*>Letter>C2	*>Letter>C2	*>Letter>C2	*>Letter>C2	*>Letter>C2	*>Letter>C2	*>Letter>C2
*>Label>Verse	*>Label>Verse	*>Label>Verse	*>Label>Verse	*>Label>Verse	*>Label>Verse	*>Label>Verse
2Amm	A:min7	2.gg]	_	.	28.295	newline
2GM	G:maj	.	.	.	29.272	.
.	.	4r	.	.	.	.
=16	=16	=16	=16	=16	=16	=16
1CM	C:maj(9)	4b	there	.	30.249	.
.	.	8dd	she	.	.	.
.	.	[8aa	goes	A	.	.
.	.	4aa]	_	.	.	.
.	.	8ff#	a-	.	.	.
.	.	[8gg	-gain	B	.	.
=17	=17	=17	=17	=17	=17	=17
1DM	D:maj	2.gg]	_	.	32.204	.
.	.	4r	.	.	.	.
=18	=18	=18	=18	=18	=18	=18
*>Letter>B	*>Letter>B	*>Letter>B	*>Letter>B	*>Letter>B	*>Letter>B	*>Letter>B
*>Label>Chorus	*>Label>Chorus	*>Label>Chorus	*>Label>Chorus	*>Label>Chorus	*>Label>Chorus	*>Label>Chorus
2GM	G:maj	1r	.	.	34.159	newline
2DM	D:maj	.	.	.	35.136	.
=19	=19	=19	=19	=19	=19	=19
2.CM	C:maj(9)	4b	ra-	.	36.113	.
.	.	4dd	-cing	.	.	.
.	.	4aa	through	.	.	.
4DM	D:maj	[4ff#	my	.	37.578	.
=20	=20	=20	=20	=20	=20	=20
2GM	G:maj	8ff#]	_	.	38.067	.
.	.	[8gg	brain	B	.	.
.	.	2gg]	_	.	.	.
2DM	D:maj	.	.	.	39.044	.
.	.	8r	.	.	.	.
.	.	8dd	and	.	.	.
=21	=21	=21	=21	=21	=21	=21
2.CM	C:maj(9)	8dd	I	.	40.02	.
.	.	8cc	_	.	.	.
.	.	8cc	just	.	.	.
.	.	8b	_	.	.	.
.	.	8b	can't	.	.	.
.	.	8g	_	.	.	.
4DM	D:maj	8g	con-	.	41.486	.
.	.	8b	-tain	B	.	.
=22	=22	=22	=22	=22	=22	=22
2GM	G:maj	8cc	_	.	41.974	newline
.	.	4.b	_	.	.	.
2DM	D:maj	4r	.	.	42.956	.
.	.	4dd	this	.	.	.
=23	=23	=23	=23	=23	=23	=23
1CM	C:maj(9)	8dd	feel-	.	43.937	.
.	.	8cc	_	.	.	.
.	.	8cc	-in	.	.	.
.	.	8b	_	.	.	.
.	.	4b	that	.	.	.
.	.	8g	re-	.	.	.
.	.	8b	-mains	B	.	.
=24	=24	=24	=24	=24	=24	=24
*>Letter>C	*>Letter>C	*>Letter>C	*>Letter>C	*>Letter>C	*>Letter>C	*>Letter>C
*>Label>Verse	*>Label>Verse	*>Label>Verse	*>Label>Verse	*>Label>Verse	*>Label>Verse	*>Label>Verse
2Amm	A:min7	8cc	_	.	45.9	newline
.	.	8b	_	.	.	.
.	.	8cc	_	.	.	.
.	.	4.b	_	.	.	.
2GM	G:maj	.	.	.	46.876	.
.	.	4r	.	.	.	.
=25	=25	=25	=25	=25	=25	=25
1CM	C:maj(9)	1r	.	.	47.853	.
=26	=26	=26	=26	=26	=26	=26
2Amm	A:min7	2dd	There	.	49.805	newline
2GM	G:maj	4.ff#	she	.	50.779	.
.	.	[8gg	blows	A	.	.
=27	=27	=27	=27	=27	=27	=27
1CM	C:maj(9)	2.gg]	_	.	51.753	.
.	.	4r	.	.	.	.
=28	=28	=28	=28	=28	=28	=28
1DM	D:maj	4b	there	.	53.7	.
.	.	8dd	she	.	.	.
.	.	[8aa	blows	A	.	.
.	.	4aa]	_	.	.	.
.	.	8ff#	a-	.	.	.
.	.	[8gg	-gain	B	.	.
=29	=29	=29	=29	=29	=29	=29
*>Letter>B	*>Letter>B	*>Letter>B	*>Letter>B	*>Letter>B	*>Letter>B	*>Letter>B
*>Label>Chorus	*>Label>Chorus	*>Label>Chorus	*>Label>Chorus	*>Label>Chorus	*>Label>Chorus	*>Label>Chorus
2GM	G:maj	2.gg]	_	.	55.648	newline
2DM	D:maj	.	.	.	56.628	.
.	.	4r	.	.	.	.
=30	=30	=30	=30	=30	=30	=30
2.CM	C:maj(9)	1r	.	.	57.607	.
4DM	D:maj	.	.	.	59.077	.
=31	=31	=31	=31	=31	=31	=31
2GM	G:maj	4b	puls-	.	59.567	.
.	.	4dd	-cing	.	.	.
2DM	D:maj	4aa	through	.	60.546	.
.	.	[4ff#	my	.	.	.
=32	=32	=32	=32	=32	=32	=32
2.CM	C:maj(9)	8ff#]	_	.	61.526	.
.	.	[8gg	brain	B	.	.
.	.	2gg]	_	.	.	.
4DM	D:maj	8r	.	.	62.996	.
.	.	8cc	and	.	.	.
=33	=33	=33	=33	=33	=33	=33
2GM	G:maj	8dd	I	.	63.485	newline
.	.	8cc	_	.	.	.
.	.	8cc	just	.	.	.
.	.	8b	_	.	.	.
2DM	D:maj	8b	can't	.	64.443	.
.	.	8g	_	.	.	.
.	.	8g	con-	.	.	.
.	.	8b	-tain	B	.	.
=34	=34	=34	=34	=34	=34	=34
1CM	C:maj(9)	8cc	_	.	65.4	.
.	.	4.b	_	.	.	.
.	.	4r	.	.	.	.
.	.	4dd	this	.	.	.
=35	=35	=35	=35	=35	=35	=35
*>Letter>C	*>Letter>C	*>Letter>C	*>Letter>C	*>Letter>C	*>Letter>C	*>Letter>C
*>Label>Verse	*>Label>Verse	*>Label>Verse	*>Label>Verse	*>Label>Verse	*>Label>Verse	*>Label>Verse
2Amm	A:min7	8dd	feel-	.	67.315	newline
.	.	8cc	_	.	.	.
.	.	8cc	-in	.	.	.
.	.	8b	_	.	.	.
2GM	G:maj	4b	that	.	68.293	.
.	.	8g	re-	.	.	.
.	.	8b	-mains	B	.	.
=36	=36	=36	=36	=36	=36	=36
1CM	C:maj(9)	8cc	_	.	69.271	.
.	.	8b	_	.	.	.
.	.	8cc	_	.	.	.
.	.	4.b	_	.	.	.
.	.	4r	.	.	.	.
=37	=37	=37	=37	=37	=37	=37
2Amm	A:min7	1r	.	.	71.227	newline
2GM	G:maj	.	.	.	72.208	.
=38	=38	=38	=38	=38	=38	=38
1CM	C:maj(9)	1r	.	.	73.189	.
=39	=39	=39	=39	=39	=39	=39
1DM	D:maj	1r	.	.	75.151	.
=40	=40	=40	=40	=40	=40	=40
*>Letter>B	*>Letter>B	*>Letter>B	*>Letter>B	*>Letter>B	*>Letter>B	*>Letter>B
*>Label>Chorus	*>Label>Chorus	*>Label>Chorus	*>Label>Chorus	*>Label>Chorus	*>Label>Chorus	*>Label>Chorus
2GM	G:maj	1r	.	.	77.113	newline
2DM	D:maj	.	.	.	78.092	.
=41	=41	=41	=41	=41	=41	=41
2.CM	C:maj(9)	1r	.	.	79.071	.
4DM	D:maj	.	.	.	80.54	.
=42	=42	=42	=42	=42	=42	=42
2GM	G:maj	1r	.	.	81.03	.
2DM	D:maj	.	.	.	82.009	.
=43	=43	=43	=43	=43	=43	=43
2.CM	C:maj(9)	1r	.	.	82.988	.
4DM	D:maj	.	.	.	84.456	.
=44	=44	=44	=44	=44	=44	=44
2GM	G:maj	1r	.	.	84.946	newline
2DM	D:maj	.	.	.	85.914	.
=45	=45	=45	=45	=45	=45	=45
1CM	C:maj(9)	1r	.	.	86.881	.
=46	=46	=46	=46	=46	=46	=46
*>Letter>C	*>Letter>C	*>Letter>C	*>Letter>C	*>Letter>C	*>Letter>C	*>Letter>C
*>Label>Verse	*>Label>Verse	*>Label>Verse	*>Label>Verse	*>Label>Verse	*>Label>Verse	*>Label>Verse
2Amm	A:min7	1r	.	.	88.816	newline
2GM	G:maj	.	.	.	89.786	.
=47	=47	=47	=47	=47	=47	=47
1CM	C:maj(9)	1r	.	.	90.755	.
=48	=48	=48	=48	=48	=48	=48
2Amm	A:min7	1r	.	.	92.694	newline
2GM	G:maj	.	.	.	93.679	.
=49	=49	=49	=49	=49	=49	=49
1CM	C:maj(9)	2dd	_	.	94.663	.
.	.	4.ff#	_	.	.	.
.	.	[8gg	_	.	.	.
=50	=50	=50	=50	=50	=50	=50
1DM	D:maj	2.gg]	_	.	96.632	.
.	.	4r	.	.	.	.
=51	=51	=51	=51	=51	=51	=51
*>Letter>D	*>Letter>D	*>Letter>D	*>Letter>D	*>Letter>D	*>Letter>D	*>Letter>D
*>Label>Bridge	*>Label>Bridge	*>Label>Bridge	*>Label>Bridge	*>Label>Bridge	*>Label>Bridge	*>Label>Bridge
1Em	E:min	4b	_	.	98.602	newline
.	.	8dd	_	.	.	.
.	.	[8aa	_	.	.	.
.	.	4aa]	_	.	.	.
.	.	8ff#	_	.	.	.
.	.	[8gg	_	.	.	.
=52	=52	=52	=52	=52	=52	=52
1CM	C:maj	4.gg]	_	.	100.56	.
.	.	8dd	_	.	.	.
.	.	4dd	_	.	.	.
.	.	4ff#	_	.	.	.
=53	=53	=53	=53	=53	=53	=53
1Em	E:min	4.gg	_	.	102.517	.
.	.	8r	.	.	.	.
.	.	4dd	_	.	.	.
.	.	4ff#	_	.	.	.
=54	=54	=54	=54	=54	=54	=54
2CM	C:maj	4.gg	_	.	104.475	.
.	.	8r	.	.	.	.
4DM	D:maj	8dd	_	.	105.454	.
.	.	8cc	_	.	.	.
4DMm	D:7	8cc	_	.	105.944	.
.	.	8b	_	.	.	.
=55	=55	=55	=55	=55	=55	=55
2GM	G:maj	4b	_	.	106.433	newline
.	.	4dd	_	.	.	.
4DM	D:maj(9)	4aa	_	.	107.401	.
4DMm	D:7	[4ff#	_	.	107.885	.
=56	=56	=56	=56	=56	=56	=56
2CMM	C:maj7	8ff#]	_	.	108.369	.
.	.	[8gg	_	.	.	.
.	.	2gg]	_	.	.	.
4DM	D:maj(9)	.	.	.	109.337	.
4DMm	D:7	8r	.	.	109.821	.
.	.	8dd	_	.	.	.
=57	=57	=57	=57	=57	=57	=57
2GM	G:maj	8dd	_	.	110.305	.
.	.	8cc	_	.	.	.
.	.	8cc	_	.	.	.
.	.	8b	_	.	.	.
4DM	D:maj(9)	8b	_	.	111.273	.
.	.	8g	_	.	.	.
4DMm	D:7	8g	_	.	111.757	.
.	.	8b	_	.	.	.
=58	=58	=58	=58	=58	=58	=58
2CMM	C:maj7	8cc	_	.	112.241	.
.	.	4.b	_	.	.	.
4DM	D:maj(9)	4r	.	.	113.209	.
4DMm	D:7	4cc	_	.	113.693	.
=59	=59	=59	=59	=59	=59	=59
1Amm	A:min7	8dd	_	.	114.177	newline
.	.	8cc	_	.	.	.
.	.	8cc	_	.	.	.
.	.	8b	_	.	.	.
.	.	4b	_	.	.	.
.	.	8g	_	.	.	.
.	.	8b	_	.	.	.
=60	=60	=60	=60	=60	=60	=60
1Emm	E:min7	8cc	_	.	116.118	.
.	.	8b	_	.	.	.
.	.	8cc	_	.	.	.
.	.	4.b	_	.	.	.
.	.	4r	.	.	.	.
=61	=61	=61	=61	=61	=61	=61
1CM	C:maj6	1r	.	.	118.059	newline
=62	=62	=62	=62	=62	=62	=62
1DM	D:maj	2dd	_	.	120.047	.
.	.	4.ff#	_	.	.	.
.	.	[8gg	_	.	.	.
=63	=63	=63	=63	=63	=63	=63
*>Letter>B	*>Letter>B	*>Letter>B	*>Letter>B	*>Letter>B	*>Letter>B	*>Letter>B
*>Label>Chorus	*>Label>Chorus	*>Label>Chorus	*>Label>Chorus	*>Label>Chorus	*>Label>Chorus	*>Label>Chorus
2GM	G:maj	2.gg]	_	.	122.035	newline
2DM	D:maj	.	.	.	123.01	.
.	.	4r	.	.	.	.
=64	=64	=64	=64	=64	=64	=64
2.CM	C:maj(9)	4b	_	.	123.985	.
.	.	8dd	_	.	.	.
.	.	[8aa	_	.	.	.
.	.	4aa]	_	.	.	.
4DM	D:maj	8ff#	_	.	125.448	.
.	.	[8gg	_	.	.	.
=65	=65	=65	=65	=65	=65	=65
2GM	G:maj	2.gg]	_	.	125.935	.
2DM	D:maj	.	.	.	126.91	.
.	.	4r	.	.	.	.
=66	=66	=66	=66	=66	=66	=66
2.CM	C:maj(9)	1r	.	.	127.885	.
4DM	D:maj	.	.	.	129.347	.
=67	=67	=67	=67	=67	=67	=67
2GM	G:maj	4b	_	.	129.835	newline
.	.	4dd	_	.	.	.
2DM	D:maj	4aa	_	.	130.813	.
.	.	[4ff#	_	.	.	.
=68	=68	=68	=68	=68	=68	=68
1CM	C:maj(9)	8ff#]	_	.	131.79	.
.	.	[8gg	_	.	.	.
.	.	2gg]	_	.	.	.
.	.	8r	.	.	.	.
.	.	8dd	_	.	.	.
=69	=69	=69	=69	=69	=69	=69
*>Letter>C	*>Letter>C	*>Letter>C	*>Letter>C	*>Letter>C	*>Letter>C	*>Letter>C
*>Label>Verse	*>Label>Verse	*>Label>Verse	*>Label>Verse	*>Label>Verse	*>Label>Verse	*>Label>Verse
2Amm	A:min7	8dd	_	.	133.746	newline
.	.	8cc	_	.	.	.
.	.	8cc	_	.	.	.
.	.	8b	_	.	.	.
2GM	G:maj	8b	_	.	134.712	.
.	.	8g	_	.	.	.
.	.	8g	_	.	.	.
.	.	8b	_	.	.	.
=70	=70	=70	=70	=70	=70	=70
1CM	C:maj(9)	8cc	_	.	135.677	.
.	.	4.b	_	.	.	.
.	.	4r	.	.	.	.
.	.	4dd	_	.	.	.
=71	=71	=71	=71	=71	=71	=71
2Amm	A:min7	8dd	_	.	137.608	newline
.	.	8cc	_	.	.	.
.	.	8cc	_	.	.	.
.	.	8b	_	.	.	.
2GM	G:maj	4b	_	.	138.589	.
.	.	8g	_	.	.	.
.	.	8b	_	.	.	.
=72	=72	=72	=72	=72	=72	=72
1CM	C:maj(9)	8cc	_	.	139.57	.
.	.	8b	_	.	.	.
.	.	8cc	_	.	.	.
.	.	4.b	_	.	.	.
.	.	4r	.	.	.	.
=73	=73	=73	=73	=73	=73	=73
1DM	D:maj	1r	.	.	141.532	.
=74	=74	=74	=74	=74	=74	=74
*>Letter>B	*>Letter>B	*>Letter>B	*>Letter>B	*>Letter>B	*>Letter>B	*>Letter>B
*>Label>Chorus	*>Label>Chorus	*>Label>Chorus	*>Label>Chorus	*>Label>Chorus	*>Label>Chorus	*>Label>Chorus
2GM	G:maj	1r	.	.	143.494	newline
2DM	D:maj	.	.	.	144.475	.
=75	=75	=75	=75	=75	=75	=75
2.CM	C:maj(9)	1r	.	.	145.457	.
4DM	D:maj	.	.	.	146.93	.
=76	=76	=76	=76	=76	=76	=76
2GM	G:maj	1r	.	.	147.421	.
2DM	D:maj	.	.	.	148.402	.
=77	=77	=77	=77	=77	=77	=77
2.CM	C:maj(9)	1r	.	.	149.384	.
4DM	D:maj	.	.	.	150.857	.
=78	=78	=78	=78	=78	=78	=78
2GM	G:maj	1r	.	.	151.348	newline
2DM	D:maj	.	.	.	152.342	.
=79	=79	=79	=79	=79	=79	=79
1CM	C:maj(9)	1r	.	.	153.336	.
=80	=80	=80	=80	=80	=80	=80
1GM	G:maj	1r	.	.	155.324	.
1r;	1r	r;	.	.	160.543	.
1r;	1r	r;	.	.	162.56	.
*-	*-	*-	*-	*-	*-	*-
!!!BillboardChartDate: 1991/07/27
!!!BillboardPeak: 49
!!!BillboardWeeksOnChart: 10
!!!COC: The La's
!!!ENC: Nathaniel Condit-Schultz
!!!EST: Awating manual error checking and editing.
!!!OTL: There She Goes
!!!RDF**chordsym: original McGill chord annotation + (implied pitch class set, with bass pitch in first position)
!!!RDF**harmony: **recip + pitch class of root + harmonic quality
!!!RDF**leadinstrument: original McGill primary instrumentation annotation
!!!RDF**phrase: newline = linebreak in original McGill transcription
!!!RDF**timestamp: McGill audio timestamp in seconds
!!!RDT: 2017/01/12/
!!!SampleActualRank: 80
!!!SampleID#: 1289
!!!SampleTargetRank: 80
!!!MBID: 913f97a2-96c8-4aec-98b6-9eeeee9de1f8
